public/piece/anarcandy/bQ.svg

<svg xmlns="http://www.w3.org/2000/svg" width="512" height="512" fill="none"><path fill="#00173C" d="M255.562 138.54c-101.106 0-183.36 71.755-183.36 159.95 0 38.697 3.058 82.604 39.556 113.965 13.972 12.005 35.31 18.863 52.454 24.376 2.184.702 4.286 1.379 6.267 2.033 1.045.346 1.52.503 2.846 7.458 1.421 7.452 3.366 17.655 13.814 26.768 3.798 3.311 15.352 13.393 68.972 13.91h.275c53.62-.517 65.175-10.596 68.973-13.91 10.445-9.114 12.393-19.316 13.814-26.768 1.326-6.955 1.804-7.112 2.849-7.458 1.981-.654 4.079-1.328 6.263-2.033 17.145-5.513 38.483-12.371 52.451-24.376 36.502-31.359 39.56-75.269 39.56-113.965-.007-88.197-82.876-159.95-184.735-159.95h.001Z"/><path fill="#FF385C" d="M179.5 335.215c-22.513 0-36.5 9.988-36.5 26.065 0 18.026 16.716 33.254 36.5 33.254 20.807 0 36.5-12.751 36.5-29.66 0-16.908-15.692-29.659-36.5-29.659ZM331.5 335.216c-20.807 0-36.5 12.751-36.5 29.658 0 16.909 15.692 29.66 36.5 29.66 19.783 0 36.5-15.23 36.5-33.254 0-16.077-13.986-26.064-36.5-26.064ZM256.51 382.332c4.691-.2 8.9 2.411 10.23 6.339l10.837 31.961c1.596 4.701-1.462 9.644-6.827 11.04-.96.252-1.934.372-2.888.372-3.656 0-7.079-1.749-8.863-4.579-2.06 3.26-6.335 5.15-10.747 4.421-5.499-.909-9.112-5.554-8.074-10.372l6.893-31.964c.87-4.026 4.769-7.009 9.439-7.218Z"/><path fill="#00173C" d="M273.691 94.3C285.208 87.9 293 75.61 293 61.5c0-20.71-16.789-37.5-37.5-37.5S218 40.79 218 61.5c0 15.082 8.904 28.085 21.742 34.038-5.561 155.251-40.491 87.368-64.669 10.249A37.347 37.347 0 0 0 184 81.5c0-20.71-16.789-37.5-37.5-37.5S109 60.79 109 81.5c0 18.329 13.15 33.587 30.53 36.853 22.233 129.903-17.633 121.399-51.35 58.222A37.322 37.322 0 0 0 94 156.5c0-20.711-16.79-37.5-37.5-37.5S19 135.789 19 156.5 35.79 194 56.5 194c.311 0 .621-.004.93-.011C66.479 227.486 71.45 275.094 73 299.5c0-12.469 82.38-22.577 184-22.577s184 10.108 184 22.577c1.033-24.403 5.088-72.005 13.746-105.501C475.344 193.867 492 177.128 492 156.5c0-20.711-16.789-37.5-37.5-37.5S417 135.789 417 156.5a37.326 37.326 0 0 0 5.697 19.88c-35.418 59.509-75.819 64.811-48.367-58.682C390.273 113.38 402 98.809 402 81.5c0-20.71-16.789-37.5-37.5-37.5S327 60.79 327 81.5c0 10.857 4.614 20.636 11.987 27.484-24.751 77.408-59.95 143.492-65.296-14.684Z"/><path fill="#FF9CAE" d="M255.5 80c10.217 0 18.5-8.283 18.5-18.5S265.717 43 255.5 43 237 51.283 237 61.5 245.283 80 255.5 80ZM165 81.5c0 10.217-8.283 18.5-18.5 18.5S128 91.717 128 81.5 136.283 63 146.5 63 165 71.283 165 81.5ZM364.5 100c10.217 0 18.5-8.283 18.5-18.5S374.717 63 364.5 63 346 71.283 346 81.5s8.283 18.5 18.5 18.5ZM473 156.5c0 10.217-8.283 18.5-18.5 18.5s-18.5-8.283-18.5-18.5 8.283-18.5 18.5-18.5 18.5 8.283 18.5 18.5ZM75 156.5c0 10.217-8.283 18.5-18.5 18.5S38 166.717 38 156.5 46.283 138 56.5 138 75 146.283 75 156.5ZM424.988 268.927c2.177-24.984 6.094-55.893 12.419-80.534-8.846 14.833-18.446 27.37-28.069 36.049-5.428 4.895-11.529 9.169-18.084 11.551-6.645 2.415-14.815 3.213-22.872-.871-16.379-8.3-20.505-29.499-21.043-46.969-.57-18.495 2.392-43.04 9.214-74.089-6.262 19.785-13.365 39.479-20.723 55.496-3.919 8.531-8.157 16.563-12.663 23.154-4.176 6.109-10.079 13.24-17.842 16.827-4.237 1.958-9.355 3.001-14.879 1.784-5.53-1.218-10.055-4.391-13.532-8.211-6.385-7.013-10.102-17.109-12.616-27.032-3.517-13.877-6.046-47.321-7.57-72.828-1.52 24.898-4.011 57.902-7.467 71.476-2.478 9.733-6.162 19.746-12.549 26.683-3.489 3.789-8.032 6.917-13.572 8.064-5.522 1.143-10.604.023-14.775-1.967-7.641-3.645-13.431-10.75-17.519-16.808-4.416-6.542-8.567-14.499-12.405-22.941-7.701-16.938-14.018-32.821-20.441-53.697 6.216 35.086 6.918 58.32 5.601 78.284-.658 9.973-2.271 19.278-5.419 27.17-3.213 8.054-8.549 15.803-16.871 19.818-8.31 4.01-16.613 2.855-23.269.061-6.527-2.74-12.489-7.419-17.717-12.648-8.362-8.364-16.614-19.923-24.282-33.446 5.91 23.813 9.952 52.428 12.416 75.76 9.86-2.428 22.321-4.507 36.536-6.252 34.105-4.184 80.768-6.728 132.005-6.728 51.237 0 97.9 2.544 132.005 6.728 13.951 1.712 26.212 3.746 35.983 6.116Z"/></svg>

<svg width="512" height="512" viewBox="0 0 512 512" fill="none" xmlns="http://www.w3.org/2000/svg">
<path d="M255.562 138.54C154.456 138.54 72.2019 210.295 72.2019 298.49C72.2019 337.187 75.2601 381.094 111.758 412.455C125.73 424.46 147.068 431.318 164.212 436.831C166.396 437.533 168.498 438.21 170.479 438.864C171.524 439.21 171.999 439.367 173.325 446.322C174.746 453.774 176.691 463.977 187.139 473.09C190.937 476.401 202.491 486.483 256.111 487H256.249H256.386C310.006 486.483 321.561 476.404 325.359 473.09C335.804 463.976 337.752 453.774 339.173 446.322C340.499 439.367 340.977 439.21 342.022 438.864C344.003 438.21 346.101 437.536 348.285 436.831C365.43 431.318 386.768 424.46 400.736 412.455C437.238 381.096 440.296 337.186 440.296 298.49C440.289 210.293 357.42 138.54 255.561 138.54H255.562Z" fill="#00173C"/>
<path d="M179.5 335.215C156.987 335.215 143 345.203 143 361.28C143 379.306 159.716 394.534 179.5 394.534C200.307 394.534 216 381.783 216 364.874C216 347.966 200.308 335.215 179.5 335.215Z" fill="#FF385C"/>
<path d="M331.5 335.216C310.693 335.216 295 347.967 295 364.874C295 381.783 310.692 394.534 331.5 394.534C351.283 394.534 368 379.304 368 361.28C368 345.203 354.014 335.216 331.5 335.216Z" fill="#FF385C"/>
<path d="M256.51 382.332C261.201 382.132 265.41 384.743 266.74 388.671L277.577 420.632C279.173 425.333 276.115 430.276 270.75 431.672C269.79 431.924 268.816 432.044 267.862 432.044C264.206 432.044 260.783 430.295 258.999 427.465C256.939 430.725 252.664 432.615 248.252 431.886C242.753 430.977 239.14 426.332 240.178 421.514L247.071 389.55C247.941 385.524 251.84 382.541 256.51 382.332Z" fill="#FF385C"/>
<path d="M273.691 94.2999C285.208 87.8993 293 75.6096 293 61.5C293 40.7893 276.211 24 255.5 24C234.789 24 218 40.7893 218 61.5C218 76.5821 226.904 89.5847 239.742 95.5381C234.181 250.789 199.251 182.906 175.073 105.787C180.641 99.2438 184 90.7642 184 81.5C184 60.7893 167.211 44 146.5 44C125.789 44 109 60.7893 109 81.5C109 99.8289 122.15 115.087 139.53 118.353C161.763 248.256 121.897 239.752 88.1795 176.575C91.8654 170.771 94 163.885 94 156.5C94 135.789 77.2107 119 56.5 119C35.7893 119 19 135.789 19 156.5C19 177.211 35.7893 194 56.5 194C56.8111 194 57.1214 193.996 57.4308 193.989C66.4776 227.486 71.4502 275.094 73 299.5C73 287.031 155.38 276.923 257 276.923C358.62 276.923 441 287.031 441 299.5C442.033 275.097 446.088 227.495 454.746 193.999C475.344 193.867 492 177.128 492 156.5C492 135.789 475.211 119 454.5 119C433.789 119 417 135.789 417 156.5C417 163.802 419.087 170.617 422.697 176.38C387.279 235.889 346.878 241.191 374.33 117.698C390.273 113.38 402 98.8093 402 81.5C402 60.7893 385.211 44 364.5 44C343.789 44 327 60.7893 327 81.5C327 92.3567 331.614 102.136 338.987 108.984C314.236 186.392 279.037 252.476 273.691 94.2999Z" fill="#00173C"/>
<path d="M255.5 80C265.717 80 274 71.7173 274 61.5C274 51.2827 265.717 43 255.5 43C245.283 43 237 51.2827 237 61.5C237 71.7173 245.283 80 255.5 80Z" fill="#FF9CAE"/>
<path d="M165 81.5C165 91.7173 156.717 100 146.5 100C136.283 100 128 91.7173 128 81.5C128 71.2827 136.283 63 146.5 63C156.717 63 165 71.2827 165 81.5Z" fill="#FF9CAE"/>
<path d="M364.5 100C374.717 100 383 91.7173 383 81.5C383 71.2827 374.717 63 364.5 63C354.283 63 346 71.2827 346 81.5C346 91.7173 354.283 100 364.5 100Z" fill="#FF9CAE"/>
<path d="M473 156.5C473 166.717 464.717 175 454.5 175C444.283 175 436 166.717 436 156.5C436 146.283 444.283 138 454.5 138C464.717 138 473 146.283 473 156.5Z" fill="#FF9CAE"/>
<path d="M75 156.5C75 166.717 66.7173 175 56.5 175C46.2827 175 38 166.717 38 156.5C38 146.283 46.2827 138 56.5 138C66.7173 138 75 146.283 75 156.5Z" fill="#FF9CAE"/>
<path d="M424.988 268.927C427.165 243.943 431.082 213.034 437.407 188.393C428.561 203.226 418.961 215.763 409.338 224.442C403.91 229.337 397.809 233.611 391.254 235.993C384.609 238.408 376.439 239.206 368.382 235.122C352.003 226.822 347.877 205.623 347.339 188.153C346.769 169.658 349.731 145.113 356.553 114.064C350.291 133.849 343.188 153.543 335.83 169.56C331.911 178.091 327.673 186.123 323.167 192.714C318.991 198.823 313.088 205.954 305.325 209.541C301.088 211.499 295.97 212.542 290.446 211.325C284.916 210.107 280.391 206.934 276.914 203.114C270.529 196.101 266.812 186.005 264.298 176.082C260.781 162.205 258.252 128.761 256.728 103.254C255.208 128.152 252.717 161.156 249.261 174.73C246.783 184.463 243.099 194.476 236.712 201.413C233.223 205.202 228.68 208.33 223.14 209.477C217.618 210.62 212.536 209.5 208.365 207.51C200.724 203.865 194.934 196.76 190.846 190.702C186.43 184.16 182.279 176.203 178.441 167.761C170.74 150.823 164.423 134.94 158 114.064C164.216 149.15 164.918 172.384 163.601 192.348C162.943 202.321 161.33 211.626 158.182 219.518C154.969 227.572 149.633 235.321 141.311 239.336C133.001 243.346 124.698 242.191 118.042 239.397C111.515 236.657 105.553 231.978 100.325 226.749C91.9629 218.385 83.7111 206.826 76.0425 193.303C81.9534 217.116 85.9954 245.731 88.4586 269.063C98.3188 266.635 110.78 264.556 124.995 262.811C159.1 258.627 205.763 256.083 257 256.083C308.237 256.083 354.9 258.627 389.005 262.811C402.956 264.523 415.217 266.557 424.988 268.927Z" fill="#FF9CAE"/>
</svg>
